X: 9
T: Pat d'Budgie $1(R-106)
I: Pat d'Budgie	R-106	C	reel
C: Graham Townsend \2511961
M: C|
R: reel
K: C
"C"CB,CE G3 E| "F"FEFA "Dm"d3 c| "G7"BcBA G2 AB| "C"c2 BA GFED|
"C"CB,CE G3 E| "F"FEFA "Dm"d3 c| "G7"BcBA G2 AB|1 "C"c2 cB c2 z2 :|2 "C"c2 cB cd e2 |]
|:"F"f2 fe fg a2| "C"gage c2 Bc| "G7"dedB G2 AB|1 "C"c2 cB cd e2 :|2 "C"c2 cB c3 e|]
|:"C"g2 z2 "F"a2 z2| "C"gage c2 Bc| "G7"dedB G2 AB|1 "C"c2 cB cd e2 :|2 "C"c2 cB c2 z2|]

